contributed-vectors/aida64.svg

<svg xmlns="http://www.w3.org/2000/svg" viewBox="0 0 192 192"><rect width="153" height="153" x="19.5" y="19.5" fill="#ff837d" rx="10"/><path fill="#fff" d="M100.44 104.51c-.18 10.93-9.77 18.81-20.78 18.72-11.29-.09-20.34-8.42-20.16-19.26.09-4.21 1.88-8.06 4.12-11.46l16.57-23.74h14.87l-12.18 16.3c.45.09.81.09 1.16.18a19.47 19.47 0 0 1 16.4 19.26Zm-20.25-8.15c-4.65-.09-7.52 3.31-7.7 7.7s2.51 8 7.26 8.06c4.56.18 7.7-3.31 7.79-7.61s-2.69-8.06-7.35-8.15Z"/><path fill="#fff" d="M132.5 111.23h-4.12v11.28h-13.26v-11.28H90l21.68-42.46h16.75v30.9h4.12Zm-17.38-11.56V80.86L106 99.67Z"/></svg>

<svg xmlns="http://www.w3.org/2000/svg" viewBox="0 0 192 192"><title>AIDA64</title><rect x="19.5" y="19.5" width="153" height="153" rx="10" fill="#ff837d"/><path d="M100.44,104.51c-.18,10.93-9.77,18.81-20.78,18.72-11.29-.09-20.34-8.42-20.16-19.26.09-4.21,1.88-8.06,4.12-11.46L80.19,68.77H95.06L82.88,85.07c.45.09.81.09,1.16.18A19.47,19.47,0,0,1,100.44,104.51ZM80.19,96.36c-4.65-.09-7.52,3.31-7.7,7.7s2.51,8,7.26,8.06c4.56.18,7.7-3.31,7.79-7.61S84.85,96.45,80.19,96.36Z" fill="#fff"/><path d="M132.5,111.23h-4.12v11.28H115.12V111.23H90l21.68-42.46h16.75v30.9h4.12ZM115.12,99.67V80.86L106,99.67Z" fill="#fff"/></svg>
